X: 23
T: Rakish Paddy
Z: Erik-Fiddler
S: https://thesession.org/tunes/86#setting48564
R: reel
M: 4/4
L: 1/8
K: Ador
|:AB|cded c/d/c Bc|AcGc AD (3D/D/D/D|Add^c [D3d3] e|fd e/f/g fded|
cded (3c/c/c/c Bc|AcG=F ED^CE|D^CDE =FAdB|cAGE ED:|
gf|efgb a/g/f gB|gagf ed^ce|(3d/d/d/d ad bdad|abag fedf|
efgb a/g/f gB|gagf ed^ce|[Dd]efg abaf|~(3g/f/g/g ag fddf|
efgb a/g/f gB|gagf ed^ce|(3d/d/d/d ad bdad|abag fddB|
(3c/c/c/c gc acgc|gagf ed^ce|[Dd]efg abaf|(3g/g/g/g ag fd||

